X:224
T:The Plough And The Stars
R:reel
M:4/4
L:1/8
K:Gmaj
GEDE GABd|gabg aged|B3d e2de|gedB AcBA|
GEDE GABd|gabg aged|Bd~d2 eBdB|1 AGAB G2BA:|2 AGAB G2 (3def||
|:g3b a2ba|gabg aged|Bd~d2 ed~d2|gedB AcBA|
GEDE GABd|gabg aged|Bd~d2 eBdB|1 AGAB G2 (3def:|2 AGAB G2 BA||

